X: 3
T:Indian Point (J-77)
R:jig
C:Rick Mohr  4/89
D:
Z:Translated to abc by Debbie Knight
Z:
M:6/8
K:Emin
"Em"B,EF G2A  |BAG FED |"C"CEF G2A |BAG BAG |
"D"FED A,2D |FEF AGF |1"Em"EFG BAG |"B" F3 FED :|	[2 "Em"GFE "D"FED | "Em"E3 E2 ||
|: A| "Em"Bef gfe |"C"cef gfe  |"D"dfg agf |"Em"gfe "D"fed |
"Em"Bef gfe |"C"ceg a2a |"B"bag fgf|"Em"e3 e2 :| 

#include "RightHeader.h"
%%text Set 71 (old set 72) (cont'd)
%%vskip -1cm
